X:1
T:Eugenia
T:EUGENIA.
T:By  SCOTT  JOPLIN.
T:Composer  of
T:“Maple  Leaf  Rag” “Cascades”  etc.
T:  Notice!   Don’t play this piece fast, It is never right to play“Ragtime”fast. Author.
T:Public Domain
T:Public Domain
T:Public Domain
T:Public Domain
T:Public Domain
C:Scott Joplin
Z:Public Domain
%%score { ( 1 3 ) | ( 2 4 ) }
L:1/8
Q:1/4=72
M:2/4
K:Bb
V:1 treble nm="Piano"
V:3 treble 
V:2 bass 
V:4 bass 
V:1
!mf!"^Slow  March  Tempo" F/B/c/B/- B/D/E/=B,/ | C/F/G/F/- F/[I:staff +1]A,/B,/G,/ | %2
 F,/G,/A,/B,/[I:staff -1] C/D/E/C/ | F z z/ F/G/A/ |:!mf!"^Legato." B/c/^c/d/- d/F/^F/G/- | %5
 G/B/c/d/- d/f/d/B/ | z/ b/g/e/ B/G_G/ | F/B/d/g/- g/e/c/A/ | B/c/^c/d/- d/F/^F/G/- | %9
 G/B/=c/d/- d/(f/=e/d/) | z/ c/c'/a/ c/dc/ | [Af]2- [Af]/F/G/A/ | B/c/^c/d/- d/F/^F/G/- | %13
 G/B/c/d/- d/B/d/f/ |!<(! z/ [Bb]/[Gg]/[Aa]/ [Bb]/[cc'][^c^c']/!<)! | %15
!f! [d^fad']/f/a/[e=fac']/- [fac']/=f/g/a/ | [db]/[Bd]/[ce]/[df]/- [df]/[Bd]/[df]/[fb]/- | %17
 [fb]/[eg]/[fa]/[gb]/- [gb]/[=eg]/[^ce]/[Bc]/ | d/F/f/d/ F/GF/ |1 [DB]2- [DB]/F/G/A/ :|2 %20
 [DB]2-!<(! [DB]/f/a/b/!<)! |:!f! [eac']=b/[eac']/- [eac']/d'/c'/a/ | %22
 [Aeg]^f/[Aeg]/- [eg]/[=fa]/[eg]/[ce]/ | [Bd]^c/[Bd]/- [Bd]/d/^c/d/ | %24
 [GBdg][Bd]/[FBdf]/- [FBdf]/d/B/F/ | z/ d/e/c/ A/ce/ | d/B/c/d/- d/d/g | z/ a/b/g/ =e/gb/ | %28
 a/f/g/a/- a/f/a/b/ | [eac']=b/[eac']/- [eac']/d'/c'/a/ | [Aeg]^f/[Aeg]/- [eg]/[=fa]/[eg]/[ce]/ | %31
 [Bd]^c/[=Bd]/- [Bd]/(B/=c/d/) | [ce]g/e/- e/c/G | [Ee]/[Dd]/[Cc]/[Dd]/ [Ee]/[Beb][_GB_g]/ | %34
 [FBf]f/d'/- d'/b/f/d/ | [ce]e/c'/- c'/f/e/c/ |1 B2- B/f/a/b/ :|2 B2- B/F/G/A/ || %38
!mf!"^Legato." B/c/^c/d/- d/F/^F/G/- | G/B/c/d/- d/f/d/B/ | z/ b/g/e/ B/G_G/ | F/B/d/g/- g/e/c/A/ | %42
 B/c/^c/d/- d/F/^F/G/- | G/B/c/d/- d/(f/=e/d/) | z/ c/c'/a/ c/dc/ | [Af]2- [Af]/F/G/A/ | %46
 B/c/^c/d/- d/F/^F/G/- | G/B/c/d/- d/B/d/f/ |!<(! z/ [Bb]/[Gg]/[Aa]/ [Bb]/[cc'][^c^c']/!<)! | %49
!f! [d^fad']/f/a/[e=fac']/- [fac']/=f/g/a/ | [db]/[Bd]/[ce]/[df]/- [df]/[Bd]/[df]/[fb]/- | %51
 [fb]/[eg]/[fa]/[gb]/- [gb]/[=eg]/[^ce]/[Bc]/ | d/F/f/d/ F/GF/ | [DB]2- B/d/f/_a/ || %54
[K:Eb]!mp! [eg]>[fa] [gb]/[fa]/[eg] | [df]>[eg] [fa]/[eg]/[df] | [ce]>[df] [eg]/[df]/[ce] | %57
 df/g/ a/_ba/ | g/f/e/g/- g/^f/g | g/f/=e/f/- f/=e/f | f/g/c'/f/- f/g/f | [db]2- b/d/f/a/ | %62
 [eg]>[fa] [gb]/[fa]/[eg] | [df]>[eg] [fa]/[eg]/[df] | [ce]>[df] [eg]/[df]/[eg] | af/g/ a/c'a/ | %66
 e/a/b/a/- a/e/a | g/f/e/B/- B/c/G | B/c/f/B/- B/c/B | [Ge]2- [Ge] (B,/=B,/) |:!f! C/D/E/D/ E/CE/ | %71
 DA/F/- F/D/=B, | (f/=e/f/d/ _e/d/e/f/) | !>![cd^f]!>![cdf] !>![=Bdg][K:bass] (D,/^D,/) | %74
 =E,/^F,/G,/F,/ G,/=E,G,/ | ^F,C/=A,/- A,/^F,/^D, |[K:treble] (=A/^G/A/^F/ =G/F/G/=A/) | %77
 !>![=E^F^A]!>![EFA] !>![^DF=B] B/=A/ | G=ED=B, | C/D/C/=B,/ C=B/=A/ | G=ED=B, | %81
 C/=B,/C/D/ C/=B,/_B, | _EE- E/D/C/_B,/ | FF- F/D/C/B,/ | GG- G/F/[=EG]/[_E=A]/ | [DB]2- B/d/f/a/ | %86
 [eg]>[fa] [gb]/[fa]/[eg] | [df]>[eg] [fa]/[eg]/[df] | [ce]>[df] [eg]/[df]/[ce] | df/g/ a/ba/ | %90
 g/f/e/g/- g/^f/g | g/f/=e/f/- f/e/f | f/g/c'/f/- f/g/f | [db]2- b/d/f/a/ | %94
 [eg]>[fa] [gb]/[fa]/[eg] | [df]>[eg] [fa]/[eg]/[df] | [ce]>[df] [eg]/[df]/[eg] | af/g/ a/c'a/ | %98
 e/a/b/a/- a/e/a | g/f/e/B/- B/c/G | B/c/f/B/- B/c/B |1 [Ge]2- [Ge] (B,/=B,/) :|2 %102
 [Ge]2 [ege'] z!fine! |] %103
V:2
 F,/B,/C/B,/- B,/D,/E,/=B,,/ | C,/F,/G,/F,/- F,/A,,/B,,/G,,/ | F,,/G,,/A,,/B,,/ C,/D,/E,/C,/ | %3
 F, [C,,C,]/[D,,D,]/ [E,,E,]/[F,,F,]/[E,,E,]/[C,,C,]/ |: [B,,,B,,][F,B,D] F,,[F,B,D] | %5
 B,,[F,B,D] [F,,F,][_A,B,D] |!ped! [E,,E,][G,B,E] [G,,G,][E,,E,]!ped-up! | %7
 [D,,D,][F,B,D] F,,[F,A,E] | B,,[F,B,D] F,,[F,B,D] | B,,[F,B,D] =B,,[^G,DF] | C,[A,CF] C,[B,C=E] | %11
 [F,,F,][C,,C,]/[D,,D,]/ [_E,,_E,]/[F,,F,]/[E,,E,]/[C,,C,]/ | [B,,,B,,][F,B,D] F,,[F,B,D] | %13
 B,,[F,B,D] [D,,D,][F,B,D] | [G,,G,][G,B,D] [E,,E,][G,A,E] | [D,,D,][^F,A,D] [=F,,,=F,,][=F,A,E] | %16
 [B,,,B,,][F,B,D] [D,,D,][_A,B,D] | [E,,E,][G,B,E] [=E,,=E,][G,B,^C] | %18
 [F,,F,][F,B,D] [F,,F,][F,A,] |1 [B,,F,B,][F,,F,]/[D,,D,]/ [E,,E,]/[F,,F,]/[E,,E,]/[C,,C,]/ :|2 %20
 [B,,B,][F,,F,][B,,,B,,] z |:!ped! [F,,F,][F,A,E] [A,,A,][F,A,E]!ped-up! | %22
!ped! [C,C][F,A,E] [F,,F,][F,A,E]!ped-up! |!ped! [B,,B,][F,B,D] [F,,F,][F,B,D]!ped-up! | %24
!ped! [B,,B,][F,B,D] [F,,F,][F,B,D]!ped-up! |!ped! [D,,D,][^F,A,CD] [^F,,^F,][F,A,CD]!ped-up! | %26
!ped! G,[G,B,D][G,B,D] x!ped-up! |!ped! [A,,A,][G,A,^C] ^C,[G,A,C]!ped-up! | %28
!ped! D,[F,A,D][F,A,D]!ped-up! z |!ped! [F,,F,][F,A,E] [A,,A,][F,A,E]!ped-up! | %30
!ped! [C,C][F,A,E] [F,,F,][F,A,E]!ped-up! | [B,,B,][F,B,D] [G,,G,][G,=B,F] | %32
!ped! C[G,CE][G,CE]!ped-up! z | [C,,C,]/[D,,D,]/[E,,E,]/[F,,F,]/ [G,,G,]/[_G,,_G,][E,,E,]/ | %34
!ped! [D,,D,][F,B,D] [F,,F,][F,B,D]!ped-up! |!ped! [F,,F,][F,A,E] [F,,F,][F,A,E]!ped-up! |1 %36
 [B,D][F,F] [D,D][B,,B,] :|2 [B,D][F,,F,]/[D,,D,]/ [E,,E,]/[F,,F,]/[E,,E,]/[C,,C,]/ || %38
 [B,,,B,,][F,B,D] F,,[F,B,D] | B,,[F,B,D] [F,,F,][_A,B,D] | %40
!ped! [E,,E,][G,B,E] [G,,G,][E,,E,]!ped-up! | [D,,D,][F,B,D] F,,[F,A,E] | B,,[F,B,D] F,,[F,B,D] | %43
 B,,[F,B,D] =B,,[^G,DF] | C,[A,CF] C,[B,C=E] | %45
 [F,,F,][C,,C,]/[D,,D,]/ [E,,E,]/[F,,F,]/[E,,E,]/[C,,C,]/ | [B,,,B,,][F,B,D] F,,[F,B,D] | %47
 B,,[F,B,D] [D,,D,][F,B,D] | [G,,G,][G,B,D] [E,,E,][G,A,E] | [D,,D,][^F,A,D] [=F,,,=F,,][=F,A,E] | %50
 [B,,,B,,][F,B,D] [D,,D,][_A,B,D] | [E,,E,][G,B,E] [=E,,=E,][G,B,^C] | %52
 [F,,F,][F,B,D] [F,,F,][F,A,] | [B,,F,B,][C,C]/[B,,B,]/ [_A,,_A,]/[B,,B,]/[A,,A,]/[F,,F,]/ || %54
[K:Eb]!ped! [E,,E,][G,B,E] [E,,E,][G,B,E]!ped-up! |!ped! [B,,B,][A,B,D] [B,,B,][=B,,=B,]!ped-up! | %56
!ped! [C,C][G,CE] [C,,C,][G,CE]!ped-up! | [G,,G,][G,=B,D] [F,,F,][A,_B,D] | %58
!ped! [E,,E,][G,B,E] [E,,E,][=E,,=E,]!ped-up! |!ped! [F,,F,][F,B,D] [D,D][F,B,D]!ped-up! | %60
!ped! [C,C][F,=A,E] [F,,F,][F,A,E]!ped-up! | %61
 [B,,B,][C,C]/[B,,B,]/ [_A,,_A,]/[B,,B,]/[A,,A,]/[F,,F,]/ | %62
!ped! [E,,E,][G,B,E] [E,,E,][G,B,E]!ped-up! |!ped! [B,,B,][A,B,D] [B,,B,][=B,,=B,]!ped-up! | %64
!ped! [C,C][G,CE] [C,,C,][G,CE]!ped-up! |!ped! [F,,F,][A,CF] [C,C][A,CF]!ped-up! | %66
!ped! [_C,_C][A,,A,] [E,,E,][_C,,_C,]!ped-up! |!ped! [B,,,B,,][E,,E,] [G,,G,][B,,B,]!ped-up! | %68
!ped! [F,,F,][A,B,D] [B,,,B,,][A,B,D]!ped-up! | [E,,E,]B,,E,, (B,,/=B,,/) |: %70
 C,/D,/E,/D,/ E,/C,E,/ | D,A,/F,/- F,/D,/=B,, |[K:treble] ((([=B,DA]2 [CEG]2))) | %73
[K:bass] !>![_A,,_A,]!>![A,,A,] !>![G,,G,] (D,,/^D,,/) | =E,,/^F,,/G,,/F,,/ G,,/=E,,G,,/ | %75
 ^F,,C,/=A,,/- A,,/^F,,/^D,, | ((([^D,^F,C]2 [=E,G,=B,]2))) | %77
 !>![C,,C,]!>![C,,C,] !>![=B,,,=B,,]^D, | =E,C,=B,,G,, | =A,,/=B,,/A,,/^G,,/ A,,/D,/^D, | %80
 =E,C,=B,,G,, | =A,,/^G,,/A,,/=B,,/ A,,_B,, | _E,E,- E,/D,/C,/_B,,/ | F,F,- F,/D,/C,/B,,/ | %84
 G,G,- G,/F,/C,/F,,/ | B,,[C,C]/[B,,B,]/ [A,,A,]/[B,,B,]/[A,,A,]/[F,,F,]/ | %86
!ped! [E,,E,][G,B,E] [E,,E,][G,B,E]!ped-up! |!ped! [B,,B,][A,B,D] [B,,B,][=B,,=B,]!ped-up! | %88
!ped! [C,C][G,CE] [C,,C,][G,CE]!ped-up! | [G,,G,][G,=B,D] [F,,F,][A,_B,D] | %90
 [E,,E,][G,B,E] [E,,E,][=E,,=E,] |!ped! [F,,F,][F,B,D] [D,D][F,B,D]!ped-up! | %92
!ped! [C,C][F,=A,E] [F,,F,][F,A,E]!ped-up! | %93
 [B,,B,][C,C]/[B,,B,]/ [A,,A,]/[B,,B,]/[A,,A,]/[F,,F,]/ | %94
!ped! [E,,E,][G,B,E] [E,,E,][G,B,E]!ped-up! |!ped! [B,,B,][A,B,D] [B,,B,][=B,,=B,]!ped-up! | %96
!ped! [C,C][G,CE] [C,,C,][G,CE]!ped-up! |!ped! [F,,F,][A,CF] [C,C][A,CF]!ped-up! | %98
!ped! [_C,_C][A,,A,] [E,,E,][_C,,_C,]!ped-up! |!ped! [B,,,B,,][E,,E,] [G,,G,][B,,B,]!ped-up! | %100
!ped! [F,,F,][A,B,D] [B,,,B,,][A,B,D]!ped-up! |1 [E,,E,]B,,E,, (B,,/=B,,/) :|2 [E,,E,]B,,E,, z |] %103
V:3
 x4 | x4 | x4 | x4 |: x4 | x4 | x4 | x4 | x4 | x4 | x/ c3/2 B2 | x4 | x4 | x4 | x4 | x2 e2 | x4 | %17
 x4 | B/F/- F E>E |1 x4 :|2 x4 |: x4 | x2 A2 | x4 | x4 | z ^F z/ F3/2 | G>G- G^c | z ^c z/ c3/2 | %28
 d>d- d z | x4 | x2 A2 | x4 | x4 | x4 | x4 | x4 |1 x4 :|2 x4 || x4 | x4 | x4 | x4 | x4 | x4 | %44
 x/ c3/2 B2 | x4 | x4 | x4 | x4 | x2 e2 | x4 | x4 | B/F/- F E2 | x2 D/B/d ||[K:Eb] x4 | x4 | x4 | %57
 =B2 d2 | e>e- e[B^c] | [Bd]>[Bd]- [Bd]d | _e>e- ee | x2 d/B/d | x4 | x4 | x4 | c4 | [A_c]3 [Ae] | %67
 [Be]>[EG]- [EG]E | A>A- AA | x4 |: x4 | x4 | x4 | x3[K:bass] x | x4 | x4 |[K:treble] x4 | x4 | %78
 x4 | x4 | x4 | x4 | x4 | x4 | x4 | x2 D/B/d | x4 | x4 | x4 | =B2 d2 | e>e- e[B^c] | %91
 [Bd]>[Bd]- [Bd]d | e>e- ee | x2 d/B/d | x4 | x4 | x4 | c4 | [A_c]3 [Ae] | [Be]>[EG]- [EG]E | %100
 A>A- AA |1 x4 :|2 x4 |] %103
V:4
 x4 | x4 | x4 | x4 |: x4 | x4 | x4 | x4 | x4 | x4 | x4 | x4 | x4 | x4 | x4 | x4 | x4 | x4 | x4 |1 %19
 x4 :|2 x4 |: x4 | x4 | x4 | x4 | x4 | [G,,G,]3 [B,,B,] | x4 | D,3 x | x4 | x4 | x4 | [C,C]3 x | %33
 x4 | x4 | x4 |1 x4 :|2 x4 || x4 | x4 | x4 | x4 | x4 | x4 | x4 | x4 | x4 | x4 | x4 | x4 | x4 | x4 | %52
 x4 | x4 ||[K:Eb] x4 | x4 | x4 | x4 | x4 | x4 | x4 | x4 | x4 | x4 | x4 | x4 | x4 | x4 | x4 | x4 |: %70
 x4 | x4 |[K:treble] x4 |[K:bass] x4 | x4 | x4 | x4 | x4 | x4 | x4 | x4 | x4 | x4 | x4 | x4 | x4 | %86
 x4 | x4 | x4 | x4 | x4 | x4 | x4 | x4 | x4 | x4 | x4 | x4 | x4 | x4 | x4 |1 x4 :|2 x4 |] %103

